icons/svg/16x16/comment/outline.svg

<svg width="16" height="16" fill="none" xmlns="http://www.w3.org/2000/svg">
  <path fill-rule="evenodd" clip-rule="evenodd" d="M10 8h2V6h-2v2zM7 8h2V6H7v2zM4 8h2V6H4v2zm4 3c-3.316 0-5-.619-5-4 0-3.381 1.684-4 5-4s5 .619 5 4c0 3.381-1.684 4-5 4zM8 1C3.452 1 1 2.582 1 7c0 2.33.688 3.864 2 4.801V15l4-2-.074-.037c.345.022.7.037 1.074.037 4.548 0 7-1.582 7-6s-2.452-6-7-6z" fill="#000"/>
</svg>

<svg xmlns="http://www.w3.org/2000/svg" width="16" height="16" viewBox="0 0 16 16">
  <path fill-rule="evenodd" d="M10,8 L12,8 L12,6 L10,6 L10,8 Z M7,8 L9,8 L9,6 L7,6 L7,8 Z M4,8 L6,8 L6,6 L4,6 L4,8 Z M8,11 C4.684,11 3,10.381 3,7 C3,3.619 4.684,3 8,3 C11.316,3 13,3.619 13,7 C13,10.381 11.316,11 8,11 L8,11 Z M8,1 C3.452,1 1,2.582 1,7 C1,9.33 1.688,10.864 3,11.801 L3,15 L7,13 L6.926,12.963 C7.271,12.985 7.626,13 8,13 C12.548,13 15,11.418 15,7 C15,2.582 12.548,1 8,1 L8,1 Z"/>
</svg>
